svgs/sharp-regular/bandage.svg

<svg xmlns="http://www.w3.org/2000/svg" viewBox="0 0 640 512"><!--! Font Awesome Pro 6.6.0 by @fontawesome - https://fontawesome.com License - https://fontawesome.com/license (Commercial License) Copyright 2024 Fonticons, Inc. --><path d="M448 144l0 224 144 0 0-224-144 0zM192 96l256 0 144 0 48 0 0 48 0 224 0 48-48 0-144 0-256 0L48 416 0 416l0-48L0 144 0 96l48 0 144 0zm0 272l0-224L48 144l0 224 144 0zm80-136a24 24 0 1 0 0-48 24 24 0 1 0 0 48zm120-24a24 24 0 1 0 -48 0 24 24 0 1 0 48 0zM272 328a24 24 0 1 0 0-48 24 24 0 1 0 0 48zm120-24a24 24 0 1 0 -48 0 24 24 0 1 0 48 0z"/></svg>

<svg xmlns="http://www.w3.org/2000/svg" viewBox="0 0 640 512"><!--! Font Awesome Pro 6.4.2 by @fontawesome - https://fontawesome.com License - https://fontawesome.com/license (Commercial License) Copyright 2023 Fonticons, Inc. --><path d="M448 144V368H592V144H448zM192 96H448 592h48v48V368v48H592 448 192 48 0V368 144 96H48 192zm0 272V144H48V368H192zm80-136a24 24 0 1 0 0-48 24 24 0 1 0 0 48zm120-24a24 24 0 1 0 -48 0 24 24 0 1 0 48 0zM272 328a24 24 0 1 0 0-48 24 24 0 1 0 0 48zm120-24a24 24 0 1 0 -48 0 24 24 0 1 0 48 0z"/></svg>
